packages/ffe-icons/icons/open/300/md/center_focus_weak.svg

<svg xmlns="http://www.w3.org/2000/svg" height="24" viewBox="0 -960 960 960" width="24"><path d="M212.309-140.001q-30.308 0-51.308-21t-21-51.308v-117.692q0-12.749 8.629-21.374Q157.259-360 170.014-360q12.756 0 21.371 8.625Q200-342.75 200-330.001v117.692q0 4.616 3.846 8.463 3.847 3.846 8.463 3.846h117.692q12.749 0 21.374 8.629Q360-182.743 360-169.987q0 12.755-8.625 21.37-8.625 8.616-21.374 8.616H212.309Zm535.382 0H629.999q-12.749 0-21.374-8.629Q600-157.259 600-170.014q0-12.756 8.625-21.371Q617.25-200 629.999-200h117.692q4.616 0 8.463-3.846 3.846-3.847 3.846-8.463v-117.692q0-12.749 8.629-21.374Q777.257-360 790.013-360q12.755 0 21.37 8.625 8.616 8.625 8.616 21.374v117.692q0 30.308-21 51.308t-51.308 21Zm-607.69-489.998v-117.692q0-30.308 21-51.308t51.308-21h117.692q12.749 0 21.374 8.629Q360-802.741 360-789.986q0 12.756-8.625 21.371Q342.75-760 330.001-760H212.309q-4.616 0-8.463 3.846-3.846 3.847-3.846 8.463v117.692q0 12.749-8.629 21.374Q182.743-600 169.987-600q-12.755 0-21.37-8.625-8.616-8.625-8.616-21.374Zm619.999 0v-117.692q0-4.616-3.846-8.463-3.847-3.846-8.463-3.846H629.999q-12.749 0-21.374-8.629Q600-777.257 600-790.013q0-12.755 8.625-21.37 8.625-8.616 21.374-8.616h117.692q30.308 0 51.308 21t21 51.308v117.692q0 12.749-8.629 21.374Q802.741-600 789.986-600q-12.756 0-21.371-8.625Q760-617.25 760-629.999ZM480-340.001q-57.749 0-98.874-41.125-41.125-41.125-41.125-98.874 0-57.749 41.125-98.874 41.125-41.125 98.874-41.125 57.749 0 98.874 41.125 41.125 41.125 41.125 98.874 0 57.749-41.125 98.874-41.125 41.125-98.874 41.125ZM480-400q33 0 56.5-23.5T560-480q0-33-23.5-56.5T480-560q-33 0-56.5 23.5T400-480q0 33 23.5 56.5T480-400Zm0-80Z"/></svg>

<svg xmlns="http://www.w3.org/2000/svg" height="24" viewBox="0 -960 960 960" width="24"><path d="M212.31-140Q182-140 161-161q-21-21-21-51.31V-330q0-12.75 8.63-21.38 8.63-8.62 21.38-8.62 12.76 0 21.37 8.62Q200-342.75 200-330v117.69q0 4.62 3.85 8.46 3.84 3.85 8.46 3.85H330q12.75 0 21.38 8.63 8.62 8.63 8.62 21.38 0 12.76-8.62 21.37Q342.75-140 330-140H212.31Zm535.38 0H630q-12.75 0-21.38-8.63-8.62-8.63-8.62-21.38 0-12.76 8.62-21.37Q617.25-200 630-200h117.69q4.62 0 8.46-3.85 3.85-3.84 3.85-8.46V-330q0-12.75 8.63-21.38 8.63-8.62 21.38-8.62 12.76 0 21.37 8.62Q820-342.75 820-330v117.69Q820-182 799-161q-21 21-51.31 21ZM140-630v-117.69Q140-778 161-799q21-21 51.31-21H330q12.75 0 21.38 8.63 8.62 8.63 8.62 21.38 0 12.76-8.62 21.37Q342.75-760 330-760H212.31q-4.62 0-8.46 3.85-3.85 3.84-3.85 8.46V-630q0 12.75-8.63 21.38-8.63 8.62-21.38 8.62-12.76 0-21.37-8.62Q140-617.25 140-630Zm620 0v-117.69q0-4.62-3.85-8.46-3.84-3.85-8.46-3.85H630q-12.75 0-21.38-8.63-8.62-8.63-8.62-21.38 0-12.76 8.62-21.37Q617.25-820 630-820h117.69Q778-820 799-799q21 21 21 51.31V-630q0 12.75-8.63 21.38-8.63 8.62-21.38 8.62-12.76 0-21.37-8.62Q760-617.25 760-630ZM480-340q-57.75 0-98.87-41.13Q340-422.25 340-480q0-57.75 41.13-98.87Q422.25-620 480-620q57.75 0 98.87 41.13Q620-537.75 620-480q0 57.75-41.13 98.87Q537.75-340 480-340Zm0-60q33 0 56.5-23.5T560-480q0-33-23.5-56.5T480-560q-33 0-56.5 23.5T400-480q0 33 23.5 56.5T480-400Zm0-80Z"/></svg>
